X: 21
T: No_115_Partridge_Dance_Song.krn
N: Derived from No_115_Partridge_Dance_Song.krn
%%abc-version 2.0
%%abcx-abcm2ps-target-version 5.9.1 (29 Sep 2008)
%%abc-creator hum2abc beta
%%abcx-conversion-date 2019/03/15 08:35:44
%%humdrum-veritas 2164783625
%%humdrum-veritas-data 2575440138
%%linebreak <none>
%%barnumbers 0
L: 1/8
M: 2/4
K: F clef=bass
[K:clef=bass][M:2/4]z2z z/ C/ ]|:  
C2C2 | 
CB, A,3/C/ | 
C2A,2 | 
F,F, F,3/A,/ | 
A,2A,2 | 
F,F,F,2 | 
F,2F, z | 
A,F,F,2 | 
F,2F, z/ C/ :|]  
F,2F, z |]  



